lib/brands/logos/federal-communications-commission.svg

<svg xmlns="http://www.w3.org/2000/svg" fill="none" aria-hidden="true" viewBox="0 0 135 101"><g id="Federal Communications Commission"><g id="Union"><path fill="black" d="M58.4903 51.425C58.4903 69.2616 72.9528 83.709 90.7834 83.709C101.244 83.709 110.541 78.7398 116.442 71.0397L130.58 70.9341C123.392 85.6489 108.274 95.6678 90.7834 95.6678C68.3474 95.6678 49.8162 78.969 46.9275 57.329H19.3795C19.3795 57.329 18.7312 56.8897 18.7312 57.9913V95.3924C18.7312 95.3924 20.0459 95.6186 18.0749 95.6186H5.5995C5.5995 95.6186 3.41138 94.9572 3.41138 93.4274V17.9539C3.41138 17.9539 4.31296 13.8671 6.88805 10.2899C8.98772 7.36604 12.4202 4.83216 15.6667 4.83216H49.579L50.0183 5.4885V19.9239C50.0183 19.9239 50.8927 20.5802 49.579 20.5802H20.9113C20.9113 20.5802 18.5131 21.4567 18.5131 23.6438V45.1802C18.5131 45.1802 18.285 45.6124 19.3795 45.6124H46.9195C49.764 23.9353 68.3142 7.18713 90.7834 7.18713C108.379 7.18713 123.576 17.4523 130.711 32.3179L116.835 32.338C110.962 24.3373 101.482 19.1419 90.7834 19.1419C72.9528 19.1419 58.4903 33.5984 58.4903 51.425Z"/><path fill="black" d="M103.575 42.4393C100.799 38.3334 96.1065 36.0126 90.7834 36.0126C82.2742 36.0126 75.3681 42.9127 75.3691 51.424C75.3691 59.9372 82.2752 66.8453 90.7845 66.8453C95.7035 66.8453 100.082 64.5436 102.909 60.9524L116.128 60.8388C112.31 71.1271 102.4 78.4453 90.7834 78.4453C75.8676 78.4453 63.7601 66.3468 63.7601 51.425C63.7601 36.5021 75.8676 24.4056 90.7834 24.4056C102.551 24.4056 112.557 31.9168 116.267 42.3951L103.575 42.4393Z"/></g></g></svg>

<svg xmlns="http://www.w3.org/2000/svg" fill="none" aria-hidden="true" viewBox="0 0 135 101"><g fill="#000"><path d="M58.49 51.425c0 17.837 14.463 32.284 32.293 32.284 10.461 0 19.758-4.97 25.659-12.67l14.138-.105c-7.188 14.715-22.306 24.734-39.797 24.734-22.436 0-40.967-16.699-43.855-38.339H19.38s-.649-.44-.649.662v37.401s1.315.227-.656.227H5.599s-2.188-.662-2.188-2.192V17.954s.902-4.087 3.477-7.664c2.1-2.924 5.532-5.458 8.779-5.458h33.912l.44.657v14.435s.874.656-.44.656H20.911s-2.398.877-2.398 3.064V45.18s-.228.432.866.432h27.54C49.764 23.935 68.314 7.187 90.784 7.187c17.596 0 32.793 10.265 39.928 25.13l-13.876.021c-5.873-8-15.353-13.196-26.052-13.196-17.83 0-32.293 14.456-32.293 32.283Z"/><path d="M103.575 42.44c-2.776-4.107-7.469-6.427-12.792-6.427-8.509 0-15.415 6.9-15.414 15.411 0 8.513 6.906 15.421 15.415 15.421 4.92 0 9.298-2.301 12.125-5.893l13.219-.113C112.31 71.127 102.4 78.445 90.783 78.445c-14.915 0-27.023-12.098-27.023-27.02 0-14.923 12.108-27.02 27.023-27.02 11.768 0 21.774 7.512 25.484 17.99l-12.692.044Z"/></g></svg>
